public/icons/general/server.svg

<?xml version="1.0" encoding="utf-8"?><!-- Uploaded to: SVG Repo, www.svgrepo.com, Generator: SVG Repo Mixer Tools -->
<svg width="800px" height="800px" viewBox="0 0 24 24" fill="none" xmlns="http://www.w3.org/2000/svg">
<path d="M18 7H18.01M15 7H15.01M18 17H18.01M15 17H15.01M6 10H18C18.9319 10 19.3978 10 19.7654 9.84776C20.2554 9.64477 20.6448 9.25542 20.8478 8.76537C21 8.39782 21 7.93188 21 7C21 6.06812 21 5.60218 20.8478 5.23463C20.6448 4.74458 20.2554 4.35523 19.7654 4.15224C19.3978 4 18.9319 4 18 4H6C5.06812 4 4.60218 4 4.23463 4.15224C3.74458 4.35523 3.35523 4.74458 3.15224 5.23463C3 5.60218 3 6.06812 3 7C3 7.93188 3 8.39782 3.15224 8.76537C3.35523 9.25542 3.74458 9.64477 4.23463 9.84776C4.60218 10 5.06812 10 6 10ZM6 20H18C18.9319 20 19.3978 20 19.7654 19.8478C20.2554 19.6448 20.6448 19.2554 20.8478 18.7654C21 18.3978 21 17.9319 21 17C21 16.0681 21 15.6022 20.8478 15.2346C20.6448 14.7446 20.2554 14.3552 19.7654 14.1522C19.3978 14 18.9319 14 18 14H6C5.06812 14 4.60218 14 4.23463 14.1522C3.74458 14.3552 3.35523 14.7446 3.15224 15.2346C3 15.6022 3 16.0681 3 17C3 17.9319 3 18.3978 3.15224 18.7654C3.35523 19.2554 3.74458 19.6448 4.23463 19.8478C4.60218 20 5.06812 20 6 20Z" stroke="#000000" stroke-width="2" stroke-linecap="round" stroke-linejoin="round"/>
</svg>

<svg xmlns="http://www.w3.org/2000/svg" width="800" height="800" fill="none" viewBox="0 0 24 24"><path stroke="#000" stroke-linecap="round" stroke-linejoin="round" stroke-width="2" d="M18 7h.01M15 7h.01M18 17h.01M15 17h.01M6 10h12c.932 0 1.398 0 1.765-.152a2 2 0 0 0 1.083-1.083C21 8.398 21 7.932 21 7s0-1.398-.152-1.765a2 2 0 0 0-1.083-1.083C19.398 4 18.932 4 18 4H6c-.932 0-1.398 0-1.765.152a2 2 0 0 0-1.083 1.083C3 5.602 3 6.068 3 7s0 1.398.152 1.765a2 2 0 0 0 1.083 1.083C4.602 10 5.068 10 6 10m0 10h12c.932 0 1.398 0 1.765-.152a2 2 0 0 0 1.083-1.083C21 18.398 21 17.932 21 17s0-1.398-.152-1.765a2 2 0 0 0-1.083-1.083C19.398 14 18.932 14 18 14H6c-.932 0-1.398 0-1.765.152a2 2 0 0 0-1.083 1.083C3 15.602 3 16.068 3 17s0 1.398.152 1.765a2 2 0 0 0 1.083 1.083C4.602 20 5.068 20 6 20"/></svg>
